X:1
T:Longwood, 10.10.10.10
T:Longwood, 10.10.10.10
T:Joseph Barnby, 1872
T:Public Domain Courtesy of the Cyber Hymnal™
C:Joseph Barnby, 1872
Z:Public Domain
Z:Courtesy of the Cyber Hymnal™
%%score ( 1 2 ) ( 3 4 )
L:1/8
M:4/4
K:Eb
V:1 treble 
V:2 treble 
V:3 bass 
V:4 bass 
V:1
 [B,G]4 [EG]2 [EA]2 | [EB]2 [DG]2 [CF]2 [CE]2 | [B,E]4 [B,D]4 | [B,E]8 | [EG]4 G2 [G=A]2 | %5
 [GB]2 [Fd]2 [Ec]2 G2 | [FB]4 [E=A]4 | [DB]8 | [DF]4 E2 [B,E]2 | A4 [EG]4 | %10
 [EB]2 [EB]2 [EA]2 [GB]2 | [Ac]8 | [Fd]4 [Ee]2 [EB]2 | [EA]2 [FA]2 [B,G]2 [_DB]2 | E6 z2 x2 | %15
 [B,G]8 |] %16
V:2
 x8 | x8 | x8 | x8 | x4 G2 x2 | x6 G2 | x8 | x8 | x4 E2 x2 | (C2 D2) x4 | x8 | x8 | x8 | x8 | %14
 C4 (C4 F2) | x8 |] %16
V:3
 E,4 [C,E,]2 [C,F,]2 | [G,,G,]2 [G,,B,]2 [A,,A,]2 [A,,G,]2 | [B,,F,]4 [B,,F,]4 | [E,G,]8 | %4
 [E,B,]4 [C,E]2 [C,E]2 | [G,D]2 [G,B,]2 [C,G,]2 [C,E]2 | [F,D]4 [F,C]4 | [B,,B,]8 | %8
 [A,B,]4 [G,B,]2 G,2 | [F,A,]4 [E,B,]4 | [_D,G,]2 [D,G,]2 [C,A,]2 [B,,_D]2 | [A,,C]8 | %12
 [A,B,]4 [G,B,]2 [G,B,]2 | [F,C]2 [B,,D]2 [E,E]2 [G,,B,]2 | [A,,B,]4 [A,,A,]4 x2 | [E,G,]8 |] %16
V:4
 E,4 x4 | x8 | x8 | x8 | x8 | x8 | x8 | x8 | x6 G,2 | x8 | x8 | x8 | x8 | x8 | x10 | x8 |] %16

